src/assets/howItWorks/phone.svg

<svg xmlns="http://www.w3.org/2000/svg" width="18" height="19" viewBox="0 0 18 19" fill="none">
<path fill-rule="evenodd" clip-rule="evenodd" d="M17.9123 0.959427C17.9241 0.971207 17.9359 0.982987 17.9359 0.994767C17.9712 1.07723 17.983 1.17147 17.9948 1.26571V5.98956C17.9948 6.41365 17.6532 6.75527 17.2291 6.75527C16.805 6.75527 16.4634 6.41365 16.4634 5.98956V3.10342L12.2461 7.32072C12.0929 7.47387 11.9044 7.54455 11.7042 7.54455C11.5039 7.54455 11.3154 7.47387 11.1623 7.32072C10.8678 7.02622 10.8678 6.53145 11.1623 6.23695L15.3678 2.03142H12.4934C12.0694 2.03142 11.7277 1.6898 11.7277 1.26571C11.7277 0.841625 12.0694 0.5 12.4934 0.5H17.2173C17.2526 0.5 17.288 0.51178 17.3115 0.52356C17.3822 0.52356 17.4529 0.535341 17.5118 0.558901C17.5943 0.594241 17.6649 0.653142 17.7356 0.712043C17.7406 0.712043 17.7435 0.712043 17.7461 0.712947C17.7495 0.71417 17.7524 0.717049 17.7592 0.723823C17.7651 0.729713 17.768 0.735603 17.771 0.741492C17.7739 0.747383 17.7769 0.753273 17.7827 0.759164C17.8299 0.818065 17.877 0.888746 17.9123 0.959427ZM13.1348 10.9448C13.7945 11.1922 14.4896 11.3571 15.1846 11.4513C15.7618 11.5338 16.2802 11.8165 16.6571 12.2642C17.0223 12.7 17.2226 13.2537 17.2108 13.8192V16.1752C17.2108 16.505 17.1401 16.8231 17.0105 17.1176C16.8692 17.4239 16.6807 17.6831 16.4451 17.9069C16.1977 18.1307 15.915 18.2956 15.6087 18.4017C15.3613 18.4723 15.1139 18.5195 14.8548 18.5195C14.7841 18.5195 14.7134 18.5195 14.6427 18.5077C12.11 18.2249 9.63614 17.3532 7.50392 15.9632C5.52486 14.7027 3.80495 12.9945 2.54447 11.0037C1.15441 8.87149 0.282678 6.38587 0.0117336 3.85313C-0.0236069 3.5115 0.0235138 3.18166 0.117755 2.87538C0.223777 2.56909 0.388699 2.28637 0.612523 2.05076C0.836346 1.80338 1.10729 1.6149 1.40179 1.48531C1.6963 1.35573 2.01436 1.28505 2.34421 1.28505H4.70024C5.26569 1.27327 5.81936 1.47353 6.24345 1.8505C6.67931 2.21569 6.96204 2.73401 7.03272 3.29946C7.12696 4.00627 7.30366 4.68952 7.55105 5.36099C7.70419 5.7733 7.73953 6.23273 7.64529 6.66859C7.55105 7.10446 7.339 7.50498 7.02094 7.82305L6.44371 8.40028C7.37434 9.86102 8.61126 11.1097 10.0838 12.0404L10.661 11.4631C10.9791 11.1568 11.3796 10.933 11.8272 10.8506C12.2513 10.7563 12.7108 10.7799 13.1348 10.9448ZM15.6676 16.1752V13.8074V13.7956C15.6794 13.5953 15.6087 13.4069 15.4791 13.2537C15.3495 13.1006 15.1728 12.9945 14.9726 12.971C14.1597 12.865 13.3587 12.6647 12.593 12.382C12.4516 12.3231 12.2985 12.3113 12.1453 12.3466C11.9922 12.3702 11.8508 12.4527 11.7448 12.5587L10.7435 13.56C10.4961 13.7956 10.1191 13.8545 9.82462 13.6778C7.72775 12.488 5.99606 10.7445 4.80626 8.65944C4.64134 8.36494 4.68846 7.98797 4.93585 7.74059L5.93716 6.73927C6.04318 6.63325 6.11386 6.49189 6.1492 6.33875C6.18455 6.18561 6.17277 6.03246 6.11386 5.8911C5.83114 5.12539 5.63088 4.32434 5.52486 3.5115C5.5013 3.32302 5.40705 3.14632 5.25391 3.01674C5.10077 2.88716 4.92407 2.81647 4.7238 2.81647H4.71202H2.34421C2.22641 2.81647 2.12038 2.84003 2.00258 2.88716C1.89656 2.93428 1.8141 3.00496 1.73164 3.08742C1.66096 3.16988 1.60206 3.26412 1.56672 3.37014C1.53138 3.47616 1.5196 3.58219 1.53138 3.69999C1.77876 5.98534 2.56803 8.23536 3.81673 10.1791C4.97119 11.9815 6.51439 13.5364 8.31676 14.6791C10.2487 15.9396 12.4869 16.7406 14.7841 16.988C14.8783 16.9998 14.9961 16.988 15.1021 16.9527C15.2199 16.9056 15.3142 16.8584 15.3966 16.776C15.4791 16.7053 15.5498 16.6111 15.5969 16.505C15.644 16.399 15.6676 16.293 15.6676 16.1752Z" fill="white"/>
</svg>

<svg xmlns="http://www.w3.org/2000/svg" width="18" height="19" fill="none">
  <path fill="#fff" fill-rule="evenodd" d="M17.912.96c.012.011.024.023.024.035.035.082.047.176.059.27V5.99a.764.764 0 0 1-.766.765.764.764 0 0 1-.766-.765V3.103l-4.217 4.218a.75.75 0 0 1-.542.224.75.75 0 0 1-.542-.224.775.775 0 0 1 0-1.084l4.206-4.206h-2.875a.764.764 0 0 1-.765-.765c0-.424.341-.766.765-.766h4.724c.036 0 .071.012.095.024a.6.6 0 0 1 .2.035c.082.035.153.094.224.153h.01q.004.002.013.012t.012.017l.012.018c.047.06.094.13.13.2m-4.777 9.985a9.5 9.5 0 0 0 2.05.506 2.353 2.353 0 0 1 2.026 2.368v2.356c0 .33-.07.648-.2.943-.142.306-.33.565-.566.789-.247.224-.53.389-.836.495-.248.07-.495.117-.754.117-.07 0-.142 0-.212-.011a16.5 16.5 0 0 1-7.14-2.545 16.2 16.2 0 0 1-4.959-4.96 16.36 16.36 0 0 1-2.532-7.15 2.5 2.5 0 0 1 .106-.978 2.3 2.3 0 0 1 .495-.824 2.3 2.3 0 0 1 .789-.566c.294-.13.612-.2.942-.2H4.7a2.25 2.25 0 0 1 1.543.566c.436.365.719.883.79 1.448.094.707.27 1.39.518 2.062.153.412.189.872.094 1.308a2.3 2.3 0 0 1-.624 1.154l-.577.577a11.8 11.8 0 0 0 3.64 3.64l.577-.577c.318-.306.719-.53 1.166-.612a2.26 2.26 0 0 1 1.308.094m2.533 5.23v-2.379a.76.76 0 0 0-.189-.542.8.8 0 0 0-.506-.283 11 11 0 0 1-2.38-.589.73.73 0 0 0-.448-.035.74.74 0 0 0-.4.212l-1.001 1.001a.77.77 0 0 1-.92.118 13.4 13.4 0 0 1-5.018-5.019.77.77 0 0 1 .13-.918l1.001-1.002a.83.83 0 0 0 .212-.4.73.73 0 0 0-.035-.448 11 11 0 0 1-.59-2.38.77.77 0 0 0-.27-.494.8.8 0 0 0-.53-.2h-2.38a.9.9 0 0 0-.341.07.9.9 0 0 0-.271.2.9.9 0 0 0-.165.283.8.8 0 0 0-.036.33 15.1 15.1 0 0 0 2.286 6.48 14.8 14.8 0 0 0 4.5 4.5 14.8 14.8 0 0 0 6.467 2.308c.094.012.212 0 .318-.035a.8.8 0 0 0 .295-.177.8.8 0 0 0 .271-.6" clip-rule="evenodd"/>
</svg>
